X: 1
T: White Lightning, My Ass!
M: 6/8
L: 1/8
R: jig
C: Bill Black irtrad-l 2000-05-19
H: refers to an actual donkey named White Lightning
H: (details on request)
K: A
E | Afe cBA | BAB cAF | EFA BAB | cdc B2E |\
    Afe cBA | Bdc BAF | EGB dcB | cAA A2 :|
B | ecA ecA | fdB fdB | gfg gab | aga gfe |\
    ecA ecA | dBF dBF | EGB dcB | cAA A2 :|
